packages/foundations/assets/icons/functional/images/transportation/bike_28.svg

<svg width="28" height="28" viewBox="0 0 28 28" fill="none" xmlns="http://www.w3.org/2000/svg">
<g clip-path="url(#clip0_187_827)">
<path fill-rule="evenodd" clip-rule="evenodd" d="M21.0652 6.77155C21.1717 7.2432 20.8758 7.71193 20.4041 7.81849L19.4521 8.03286L20.7925 12.3291C21.0035 12.3008 21.2188 12.2862 21.4375 12.2862C24.0954 12.2862 26.25 14.4409 26.25 17.0987C26.2471 19.7554 24.0942 21.9083 21.4375 21.9112C18.7796 21.9112 16.625 19.7566 16.625 17.0987C16.625 15.2772 17.637 13.6921 19.1294 12.8748L18.7486 11.6547L14.875 17.3674C14.6157 17.7477 14.1847 17.9748 13.7244 17.9737L13.0116 17.9679C12.6758 17.9288 12.3885 17.698 12.2815 17.3709L10.9156 13.199L10.2518 14.0084C10.9529 14.8445 11.375 15.9223 11.375 17.0987C11.3721 19.7554 9.21917 21.9083 6.5625 21.9112C3.90463 21.9112 1.75 19.7566 1.75 17.0987C1.75 14.4409 3.90463 12.2862 6.5625 12.2862C7.41172 12.2862 8.20957 12.5062 8.90218 12.8923L10.2699 11.2259L9.471 8.71378H8.75C8.26675 8.71378 7.875 8.32202 7.875 7.83878C7.875 7.35553 8.26675 6.96378 8.75 6.96378H12.25C12.7332 6.96378 13.125 7.35553 13.125 7.83878C13.125 8.32202 12.7332 8.71378 12.25 8.71378H11.312L11.8501 10.4323L17.9279 9.0209L17.5 7.64874C17.3823 7.27116 17.5374 6.67172 18.1423 6.53486L20.0182 6.11049C20.4899 6.00393 20.9586 6.2999 21.0652 6.77155ZM21.4375 14.0362L21.3255 14.0382L22.1646 16.7286C22.2339 16.9502 22.2122 17.1903 22.1044 17.3959C21.9966 17.6016 21.8114 17.7559 21.5898 17.825C21.5047 17.851 21.4162 17.8644 21.3272 17.8644C20.9451 17.8644 20.6071 17.6164 20.4925 17.2519L19.6667 14.5998C18.885 15.1547 18.375 16.0672 18.375 17.0987C18.375 18.7901 19.7461 20.1612 21.4375 20.1612C23.1289 20.1612 24.5 18.7901 24.5 17.0987C24.5 15.4074 23.1289 14.0362 21.4375 14.0362ZM6.5625 14.0362C4.87113 14.0362 3.5 15.4074 3.5 17.0987C3.5 18.7901 4.87113 20.1612 6.5625 20.1612C8.25387 20.1612 9.625 18.7901 9.625 17.0987C9.625 16.4702 9.43564 15.8859 9.11086 15.3997L7.35 17.545C7.18331 17.7478 6.93438 17.865 6.67188 17.8644C6.33335 17.8645 6.0251 17.6694 5.8804 17.3634C5.73571 17.0573 5.78053 16.6953 5.9955 16.4337L7.76289 14.2804C7.39428 14.1232 6.98855 14.0362 6.5625 14.0362ZM17.0643 11.0185L12.3961 12.1018L13.6754 16.013L17.0643 11.0185Z" fill="#1A1C1F"/>
</g>
<defs>
<clipPath id="clip0_187_827">
<rect width="28" height="28" fill="white"/>
</clipPath>
</defs>
</svg>

<svg xmlns="http://www.w3.org/2000/svg" width="28" height="28" fill="none"><g clip-path="url(#a)"><path fill="#1A1C1F" fill-rule="evenodd" d="M21.065 6.772a.876.876 0 0 1-.66 1.046l-.953.215 1.34 4.296a4.813 4.813 0 1 1-1.663.546l-.38-1.22-3.874 5.712c-.26.38-.69.608-1.15.607l-.713-.006a.88.88 0 0 1-.73-.597l-1.366-4.172-.664.81a4.8 4.8 0 0 1 1.123 3.09 4.812 4.812 0 1 1-2.473-4.206l1.368-1.667-.799-2.512H8.75a.875.875 0 0 1 0-1.75h3.5a.875.875 0 0 1 0 1.75h-.938l.538 1.718 6.078-1.411-.428-1.372c-.118-.378.037-.977.642-1.114l1.876-.425a.876.876 0 0 1 1.047.662m.372 7.264-.111.002.839 2.69a.875.875 0 0 1-1.672.524l-.826-2.652a3.062 3.062 0 1 0 1.77-.564m-14.875 0A3.063 3.063 0 1 0 9.112 15.4L7.35 17.545a.875.875 0 0 1-1.354-1.111l1.767-2.154a3.1 3.1 0 0 0-1.2-.244m10.502-3.017-4.668 1.083 1.28 3.911z" clip-rule="evenodd"/></g><defs><clipPath id="a"><path fill="#fff" d="M0 0h28v28H0z"/></clipPath></defs></svg>
